X:2017 
T:Jig - Cum y chenn oanrey cheh
T:Dorian version of 'Keep the old petticoat warm'
N:See also KV174.  Title given by Clague was 'Jig'
C:Traditional
O:Isle of Man
S: Charles Clague, coachman 
Z:Clague collection
B:Kiaull Vannin #17 
M:6/8 
Q:140 
K:D 
F|F2 BB2 c|d2c def|b2f f2e|dBB B2F|F2B B2c|d2c def|b2f f2e|dBB B2b| 
b2b b2b|b2b d'c'b|a2f f2e|f2e dcB|b2b b2b|b d'c'b|a2f f2e|dBB B2|| 
